src/assets/img/svg/logo-umi-cms.svg

<svg xmlns="http://www.w3.org/2000/svg" width="126" height="60" viewBox="0 0 126 60">
    <defs>
        <linearGradient id="prefix__a" x1="49.942%" x2="49.942%" y1="102.878%" y2="-3.573%">
            <stop offset="0%" stop-color="#0E6AA5"/>
            <stop offset="100%" stop-color="#009BDE"/>
        </linearGradient>
    </defs>
    <g fill="none">
        <path fill="url(#prefix__a)" d="M32.817 7.37c-9.346 0-11.18 2.828-15.498 6.068 0 0 .118-1.178-1.006-1.355-1.124-.235-1.36.825-1.36.825s-.355-.59-.533-1.178c-.65-2.593-3.786-5.362-7.098-8.662C4.009-.232.638.004.638.004L.342 1.182c-.77 2.357 0 2.946 0 3.653 0 .708.177 1.356.769 2.475.591 1.061.887 4.655 1.065 6.364.236 1.768 1.538 2.887 1.774 3.123.237.236-1.656 1.06-1.656 1.297v1.001c0 .118-.592.707-.77.884-.177.177-.177.884 0 3.771.237 2.829 5.029 5.775 6.39 6.07 1.3.294 2.425-2.299 3.253-2.593.769-.295 2.78-2.416 2.78-2.416s.592 5.48.592 3.418c0-2.063 1.242-2.593 1.242-2.593l.177-1.473s1.36 4.42 2.958 6.01C20.513 31.764 23.53 32 23.826 32c.295 0 2.307.118 4.081-4.302 1.775-4.42-1.005-5.48-.414-5.48.592 0 2.721-1.709 2.425-3.182-.295-1.473 1.124-4.478 2.485-5.833C33.763 11.848 34 8.194 34 8.076c-.06-.059-.355-.707-1.183-.707z" transform="translate(2 13)"/>
        <g fill="#008ACF">
            <path d="M0 .368v12.99c0 3.224 1.75 5.158 5.62 5.158 3.96 0 5.619-1.934 5.619-5.159V.368H7.83v12.529c0 2.026-.553 2.948-2.21 2.948-1.567 0-2.304-.922-2.304-2.948V.368H0zM13.45.368L13.45 18.148 16.674 18.148 16.674 2.027 16.674 2.027 20.082 18.148 22.477 18.148 25.886 2.027 25.886 2.027 25.886 18.148 29.11 18.148 29.11.368 23.675.368 21.28 11.883 18.885.368zM31.229.368H34.637V18.238999999999997H31.229zM36.111 15.016H39.242999999999995V18.148H36.111zM51.403 6.172v-.921C51.403 1.935 49.561 0 46.06 0c-3.685 0-5.527 1.935-5.527 6.08v6.448c0 3.132 1.013 5.988 5.527 5.988 4.238 0 5.435-2.763 5.435-5.988v-.737h-3.5v.922c0 2.303-.645 3.132-2.027 3.132-1.474 0-2.027-.737-2.027-3.132V5.71c0-2.21.645-3.04 2.027-3.04 1.474 0 2.027.737 2.027 3.04v.369h3.408v.092zM53.43.368L53.43 18.148 56.562 18.148 56.562 2.027 56.654 2.027 59.97 18.148 62.457 18.148 65.774 2.027 65.866 2.027 65.866 18.148 68.998 18.148 68.998.368 63.563.368 61.26 11.883 58.865.368zM81.618 5.988v-.553c0-3.593-1.934-5.435-5.25-5.435-3.04 0-5.251 1.658-5.251 4.606 0 1.935.92 3.408 2.671 4.606l3.04 1.935c1.29.829 1.842 1.473 1.842 2.671 0 1.105-.736 2.027-2.026 2.027-1.29 0-2.487-.645-2.487-3.132v-.645h-3.225v.645c0 3.684 1.935 5.895 5.712 5.895 3.593 0 5.527-1.842 5.527-5.066 0-2.672-1.105-3.777-3.04-5.067l-3.5-2.303c-.737-.46-1.106-.921-1.106-2.027 0-1.013.83-1.474 1.842-1.474 1.29 0 2.12.922 2.12 3.04v.185h3.131v.092z" transform="translate(2 13) translate(39 10)"/>
        </g>
    </g>
</svg>

<?xml version="1.0" encoding="UTF-8"?>
<svg width="122px" height="32px" viewBox="0 0 122 32" version="1.1" xmlns="http://www.w3.org/2000/svg" xmlns:xlink="http://www.w3.org/1999/xlink">
    <!-- Generator: Sketch 51.2 (57519) - http://www.bohemiancoding.com/sketch -->
    <title>logo-umi-cms</title>
    <desc>Created with Sketch.</desc>
    <defs></defs>
    <g id="Page-1" stroke="none" stroke-width="1" fill="none" fill-rule="evenodd">
        <g id="logo-umi-cms" fill-rule="nonzero">
            <path d="M32.817,7.37 C23.471,7.37 21.637,10.198 17.319,13.438 C17.319,13.438 17.437,12.26 16.313,12.083 C15.189,11.848 14.953,12.908 14.953,12.908 C14.953,12.908 14.598,12.318 14.42,11.73 C13.77,9.137 10.634,6.368 7.322,3.068 C4.009,-0.232 0.638,0.004 0.638,0.004 L0.342,1.182 C-0.428,3.539 0.342,4.128 0.342,4.835 C0.342,5.543 0.519,6.191 1.111,7.31 C1.702,8.371 1.998,11.965 2.176,13.674 C2.412,15.442 3.714,16.561 3.95,16.797 C4.187,17.033 2.294,17.857 2.294,18.094 L2.294,19.095 C2.294,19.213 1.702,19.802 1.524,19.979 C1.347,20.156 1.347,20.863 1.524,23.75 C1.761,26.579 6.553,29.525 7.914,29.82 C9.214,30.114 10.339,27.521 11.167,27.227 C11.936,26.932 13.947,24.811 13.947,24.811 C13.947,24.811 14.539,30.291 14.539,28.229 C14.539,26.166 15.781,25.636 15.781,25.636 L15.958,24.163 C15.958,24.163 17.318,28.583 18.916,30.173 C20.513,31.764 23.53,32 23.826,32 C24.121,32 26.133,32.118 27.907,27.698 C29.682,23.278 26.902,22.218 27.493,22.218 C28.085,22.218 30.214,20.509 29.918,19.036 C29.623,17.563 31.042,14.558 32.403,13.203 C33.763,11.848 34,8.194 34,8.076 C33.94,8.017 33.645,7.369 32.817,7.369 L32.817,7.37 Z" id="Shape" fill="#248ACC"></path>
            <g id="Group" transform="translate(39.000000, 10.000000)" fill="#008ACF">
                <path d="M0,0.368 L0,13.358 C0,16.582 1.75,18.516 5.62,18.516 C9.58,18.516 11.239,16.582 11.239,13.357 L11.239,0.368 L7.83,0.368 L7.83,12.897 C7.83,14.923 7.277,15.845 5.62,15.845 C4.053,15.845 3.316,14.923 3.316,12.897 L3.316,0.368 L0,0.368 Z M13.45,0.368 L13.45,18.148 L16.674,18.148 L16.674,2.027 L20.082,18.148 L22.477,18.148 L25.886,2.027 L25.886,18.148 L29.11,18.148 L29.11,0.368 L23.675,0.368 L21.28,11.883 L18.885,0.368 L13.45,0.368 Z M31.229,0.368 L34.637,0.368 L34.637,18.239 L31.229,18.239 L31.229,0.368 Z M36.111,15.016 L39.243,15.016 L39.243,18.148 L36.111,18.148 L36.111,15.016 Z M51.403,6.172 L51.403,5.251 C51.403,1.935 49.561,0 46.06,0 C42.375,0 40.533,1.935 40.533,6.08 L40.533,12.528 C40.533,15.66 41.546,18.516 46.06,18.516 C50.298,18.516 51.495,15.753 51.495,12.528 L51.495,11.791 L47.995,11.791 L47.995,12.713 C47.995,15.016 47.35,15.845 45.968,15.845 C44.494,15.845 43.941,15.108 43.941,12.713 L43.941,5.71 C43.941,3.5 44.586,2.67 45.968,2.67 C47.442,2.67 47.995,3.407 47.995,5.71 L47.995,6.079 L51.403,6.079 L51.403,6.171 L51.403,6.172 Z M53.43,0.368 L53.43,18.148 L56.562,18.148 L56.562,2.027 L56.654,2.027 L59.97,18.148 L62.457,18.148 L65.774,2.027 L65.866,2.027 L65.866,18.148 L68.998,18.148 L68.998,0.368 L63.563,0.368 L61.26,11.883 L58.865,0.368 L53.43,0.368 Z M81.618,5.988 L81.618,5.435 C81.618,1.842 79.684,0 76.368,0 C73.328,0 71.117,1.658 71.117,4.606 C71.117,6.541 72.037,8.014 73.788,9.212 L76.828,11.147 C78.118,11.976 78.67,12.62 78.67,13.818 C78.67,14.923 77.934,15.845 76.644,15.845 C75.354,15.845 74.157,15.2 74.157,12.713 L74.157,12.068 L70.932,12.068 L70.932,12.713 C70.932,16.397 72.867,18.608 76.644,18.608 C80.237,18.608 82.171,16.766 82.171,13.542 C82.171,10.87 81.066,9.765 79.131,8.475 L75.631,6.172 C74.894,5.712 74.525,5.251 74.525,4.145 C74.525,3.132 75.355,2.671 76.367,2.671 C77.657,2.671 78.487,3.593 78.487,5.711 L78.487,5.896 L81.618,5.896 L81.618,5.988 Z" id="Shape"></path>
            </g>
        </g>
    </g>
</svg>
